X: 1393
T: the Grey Beard
R: reel
B: O'Neill's 1850 #1393
O: Cronin
Z: Bob Safranek, rjs@gsp.org
M: C|
L: 1/8
K: G
((3DEF) |\
GcBA GFGA | defa gedB | GABA GBcB | ABAG FDEF ||\
GABA GFGB | defa gfgf | ecAc dBAG | FDEF G2 |]
|| B2 |\
d3 e dcBc | defa gedB | GBde dcBc | AFDF ABcA ||\
dcde dcBc | defa g3 f | ecAc dBGB | cAFA G2 |]
